public/images/icons/apple.svg

<svg width="60" height="60" fill="none" xmlns="http://www.w3.org/2000/svg"><rect width="60" height="60" rx="19" fill="url(#paint0_radial)"/><path fill-rule="evenodd" clip-rule="evenodd" d="M35.1956 15.5977c1.2747-1.5128 1.9142-3.1471 1.9142-4.8975 0-.2322-.0108-.4662-.0367-.7002-.888.0461-1.8321.3151-2.8302.8015-1.0003.4938-1.8251 1.1129-2.4737 1.8573-1.2991 1.4704-2.0306 3.2688-2.0306 4.9491 0 .2323.0149.4533.0406.6633 2.0177.164 3.8782-.8752 5.4164-2.6735zm6.786 25.0612c.7259-1.0349 1.3524-2.1605 1.8817-3.3833.2182-.5185.4235-1.0586.6179-1.6225-.8966-.3759-1.7024-.9052-2.424-1.59-1.5922-1.4756-2.4024-3.334-2.4262-5.5672-.0259-2.8671 1.2769-5.1021 3.9104-6.6978-1.4712-2.0913-3.6835-3.2521-6.6282-3.4897-1.0867-.0923-2.4132.1419-3.9849.7075-1.662.6099-2.6424.9158-2.9317.9158-.3869 0-1.2695-.2616-2.6439-.7775-1.3784-.5142-2.4875-.7758-3.3333-.7758-1.5458.0257-2.9812.4275-4.3097 1.2161-1.3284.7885-2.3898 1.8627-3.1877 3.2244C15.5068 24.5142 15 26.5372 15 28.8828c0 2.0476.3759 4.1627 1.1258 6.3469.7002 2.0222 1.594 3.7959 2.6811 5.3255 1.0132 1.4323 1.859 2.4434 2.5353 3.0332 1.0594.9852 2.1208 1.454 3.1857 1.4086.7002-.0238 1.616-.2636 2.7528-.7238 1.1351-.458 2.1963-.6848 3.1858-.6848.9435 0 1.9753.2268 3.0981.6848 1.1191.4602 2.0805.6871 2.8777.6871 1.1104-.026 2.1474-.4818 3.1153-1.3719.6244-.5423 1.4345-1.5188 2.424-2.9295z" fill="#fff"/><defs><radialGradient id="paint0_radial" cx="0" cy="0" r="1" gradientUnits="userSpaceOnUse" gradientTransform="matrix(0 60 -89.4998 0 30 0)"><stop stop-color="#9697A0"/><stop offset="1" stop-color="#3D3741"/></radialGradient></defs></svg>

<svg width="60" height="60" viewBox="0 0 60 60" fill="none" xmlns="http://www.w3.org/2000/svg">
<rect width="60" height="60" rx="19" fill="url(#paint0_radial)"/>
<path fill-rule="evenodd" clip-rule="evenodd" d="M35.1956 15.5977C36.4703 14.0849 37.1098 12.4506 37.1098 10.7002V10.7002C37.1098 10.468 37.099 10.234 37.0731 10C36.1851 10.0461 35.241 10.3151 34.2429 10.8015C33.2426 11.2953 32.4178 11.9144 31.7692 12.6588C30.4701 14.1292 29.7386 15.9276 29.7386 17.6079C29.7386 17.8402 29.7535 18.0612 29.7792 18.2712C31.7969 18.4352 33.6574 17.396 35.1956 15.5977ZM41.9816 40.6589C42.7075 39.624 43.334 38.4984 43.8633 37.2756C44.0815 36.7571 44.2868 36.217 44.4812 35.6531C43.5846 35.2772 42.7788 34.7479 42.0572 34.0631C40.465 32.5875 39.6548 30.7291 39.631 28.4959C39.6051 25.6288 40.9079 23.3938 43.5414 21.7981C42.0702 19.7068 39.8579 18.546 36.9132 18.3084C35.8265 18.2161 34.5 18.4503 32.9283 19.0159C31.2663 19.6258 30.2859 19.9317 29.9966 19.9317C29.6097 19.9317 28.7271 19.6701 27.3527 19.1542C25.9743 18.64 24.8652 18.3784 24.0194 18.3784C22.4736 18.4041 21.0382 18.8059 19.7097 19.5945C18.3813 20.383 17.3199 21.4572 16.522 22.8189C15.5068 24.5142 15 26.5372 15 28.8828C15 30.9304 15.3759 33.0455 16.1258 35.2297C16.826 37.2519 17.7198 39.0256 18.8069 40.5552C19.8201 41.9875 20.6659 42.9986 21.3422 43.5884C22.4016 44.5736 23.463 45.0424 24.5279 44.997C25.2281 44.9732 26.1439 44.7334 27.2807 44.2732C28.4158 43.8152 29.477 43.5884 30.4665 43.5884C31.41 43.5884 32.4418 43.8152 33.5646 44.2732C34.6837 44.7334 35.6451 44.9603 36.4423 44.9603C37.5527 44.9343 38.5897 44.4785 39.5576 43.5884C40.182 43.0461 40.9921 42.0696 41.9816 40.6589Z" fill="white"/>
<defs>
<radialGradient id="paint0_radial" cx="0" cy="0" r="1" gradientUnits="userSpaceOnUse" gradientTransform="translate(30) rotate(90) scale(60 89.4998)">
<stop stop-color="#9697A0"/>
<stop offset="1" stop-color="#3D3741"/>
</radialGradient>
</defs>
</svg>
